app/img/_src/main/advantages-list/advantages-3.svg

<svg width="80" height="80" viewBox="0 0 80 80" fill="none" xmlns="http://www.w3.org/2000/svg">
<path d="M80 16.3471V15.4839C80 6.94581 73.0542 0 64.5161 0C55.9781 0 49.0323 6.94581 49.0323 15.4839V16.3471C49.0323 19.4155 49.9316 22.3858 51.6335 24.9355L57.9419 34.3987C53.9935 35.5135 51.6129 37.5806 51.6129 40V56.6619C50.3135 55.809 48.5652 55.1342 46.4516 54.7006V47.2994C46.4516 45.5755 45.7794 43.9548 44.5613 42.7368L36.129 34.3045V26.9148C42.8245 25.6232 47.7419 19.7613 47.7419 12.8323V4.51613C47.7419 2.02581 45.7161 0 43.2258 0C40.7355 0 38.7097 2.02581 38.7097 4.51613V11.0581C38.7097 13.9445 36.8271 16.3987 34.1677 17.2168C35.3923 15.6748 36.129 13.7303 36.129 11.6129C36.129 6.63226 32.0761 2.58065 27.0968 2.58065C22.1174 2.58065 18.0645 6.63226 18.0645 11.6129C18.0645 14.2116 19.1742 16.5497 20.9355 18.1987C15.0181 18.8839 9.63226 22.2981 6.53419 27.4606L0.616774 37.3239C0.212903 37.9948 0 38.7639 0 39.5497C0 41.9329 1.93935 43.871 4.32258 43.871H4.83097C6.27871 43.871 7.62323 43.151 8.42581 41.9471L16.4168 29.96C16.8232 29.3484 17.4026 28.8903 18.0645 28.631V42.4L13.0968 59.7871C13.0929 59.8 13.0916 59.8129 13.089 59.8245C8.17419 60.7897 5.16129 63.0387 5.16129 65.8064V73.5484C5.16129 77.2271 10.7084 80 18.0645 80C23.3135 80 27.6284 78.5832 29.6774 76.4387C31.7264 78.5845 36.0413 80 41.2903 80C46.5394 80 50.8542 78.5832 52.9032 76.4387C54.9523 78.5845 59.2671 80 64.5161 80C71.8723 80 77.4193 77.2271 77.4193 73.5484V40C77.4193 37.5781 75.0387 35.5135 71.0903 34.4L77.3987 24.9368C79.1006 22.3858 80 19.4155 80 16.3471ZM46.3948 57.3329C49.7923 58.1213 51.6129 59.5548 51.6129 60.6452C51.6129 62.2245 47.5923 64.5161 41.2903 64.5161C34.9884 64.5161 30.9677 62.2245 30.9677 60.6452C30.9677 59.5548 32.7884 58.1213 36.1858 57.3329C36.4684 59.9135 38.6348 61.9355 41.2903 61.9355C43.9458 61.9355 46.1123 59.9135 46.3948 57.3329ZM28.3871 61.831C27.2142 61.0594 25.6735 60.4335 23.831 59.9987L29.289 42.7161L36.129 49.4116V54.7006C31.3252 55.6852 28.3871 57.9135 28.3871 60.6452V61.831ZM28.351 31.76L27.0968 33.0142L25.8426 31.76L26.5845 20.64H26.9794C27.0194 20.64 27.0568 20.6452 27.0968 20.6452C27.1394 20.6452 27.1794 20.64 27.2206 20.6387H27.2258H27.2297C27.3574 20.6374 27.4813 20.6271 27.6077 20.6194L28.351 31.76ZM20.6452 11.6129C20.6452 8.05548 23.5394 5.16129 27.0968 5.16129C30.6542 5.16129 33.5484 8.05548 33.5484 11.6129C33.5484 15.1703 30.6542 18.0645 27.0968 18.0645C23.5394 18.0645 20.6452 15.1703 20.6452 11.6129ZM15.4839 61.1665C15.4839 60.9394 15.5148 60.7148 15.5781 60.4968L20.5961 42.9342L20.6452 25.8064H19.3548C17.3071 25.8064 15.4052 26.8245 14.2697 28.5277L6.27871 40.5148C5.95355 41 5.4129 41.2903 4.82968 41.2903H4.32258C3.36129 41.2903 2.58065 40.5097 2.58065 39.5497C2.58065 39.2335 2.66581 38.9239 2.82839 38.6542L8.7471 28.7897C11.7613 23.7652 17.2735 20.6452 23.1316 20.6452L23.9974 20.6439L23.1897 32.7561L27.0968 36.6632L31.0039 32.7561L30.1755 20.3432L33.1561 20.0452C37.7935 19.5819 41.2903 15.7174 41.2903 11.0581V4.51613C41.2903 3.44903 42.1587 2.58065 43.2258 2.58065C44.2929 2.58065 45.1613 3.44903 45.1613 4.51613V12.8323C45.1613 18.8348 40.6632 23.8606 34.6968 24.5252L33.5484 24.6516V35.3729L42.7368 44.5613C43.4684 45.2929 43.871 46.2645 43.871 47.2994V56.7742C43.871 58.1974 42.7135 59.3548 41.2903 59.3548C39.8671 59.3548 38.7097 58.1974 38.7097 56.7742V49.4116C38.7097 48.7226 38.4271 48.0503 37.9329 47.5664L30.2039 40H27.4413L20.2361 62.8168C19.9161 63.8335 18.9832 64.5161 17.9174 64.5161C16.5755 64.5161 15.4839 63.4245 15.4839 62.0826V61.1665ZM12.9445 62.4968C13.16 65.0658 15.2942 67.0968 17.9174 67.0968C20.1148 67.0968 22.0348 65.689 22.6968 63.5923L23.049 62.4748C26.5135 63.2619 28.3871 64.7174 28.3871 65.8064C28.3871 67.3858 24.3665 69.6774 18.0645 69.6774C11.7626 69.6774 7.74194 67.3858 7.74194 65.8064C7.74194 64.7174 9.55742 63.2865 12.9445 62.4968ZM18.0645 77.4193C11.7626 77.4193 7.74194 75.1277 7.74194 73.5484V69.76C10.0568 71.2968 13.7432 72.2581 18.0645 72.2581C22.3858 72.2581 26.0723 71.2968 28.3871 69.76V73.5484C28.3871 75.1277 24.3665 77.4193 18.0645 77.4193ZM41.2903 77.4193C34.9884 77.4193 30.9677 75.1277 30.9677 73.5484V65.8064V64.5987C33.2826 66.1355 36.969 67.0968 41.2903 67.0968C45.6116 67.0968 49.2981 66.1355 51.6129 64.5987V73.5484C51.6129 75.1277 47.5923 77.4193 41.2903 77.4193ZM64.5161 77.4193C58.2142 77.4193 54.1935 75.1277 54.1935 73.5484V60.6452V43.9535C56.5084 45.4903 60.1948 46.4516 64.5161 46.4516C68.8374 46.4516 72.5239 45.4903 74.8387 43.9535V73.5484C74.8387 75.1277 70.8181 77.4193 64.5161 77.4193ZM74.8387 40C74.8387 41.5794 70.8181 43.871 64.5161 43.871C58.2142 43.871 54.1935 41.5794 54.1935 40C54.1935 38.9381 56.049 37.48 59.4671 36.6865L61.4374 39.6413C62.1239 40.6735 63.2761 41.2903 64.5161 41.2903C65.7561 41.2903 66.9084 40.6735 67.5961 39.6426L69.5665 36.6877C72.9845 37.48 74.8387 38.9355 74.8387 40ZM65.449 38.2103C65.0335 38.8348 64 38.8348 63.5845 38.2103L53.7806 23.5045C52.3626 21.3794 51.6129 18.9045 51.6129 16.3471V15.4839C51.6129 8.36903 57.4013 2.58065 64.5161 2.58065C71.631 2.58065 77.4193 8.36903 77.4193 15.4839V16.3471C77.4193 18.9032 76.6697 21.3781 75.2516 23.5045L65.449 38.2103Z" fill="#444444"/>
<path d="M64.5179 5.16113C58.8263 5.16113 54.1953 9.7921 54.1953 15.4837C54.1953 21.1753 58.8263 25.8063 64.5179 25.8063C70.2095 25.8063 74.8405 21.1753 74.8405 15.4837C74.8405 9.7921 70.2095 5.16113 64.5179 5.16113ZM64.5179 23.2256C60.2482 23.2256 56.776 19.7534 56.776 15.4837C56.776 11.214 60.2482 7.74178 64.5179 7.74178C68.7876 7.74178 72.2598 11.214 72.2598 15.4837C72.2598 19.7534 68.7876 23.2256 64.5179 23.2256Z" fill="#444444"/>
<path d="M56.7734 49.0322H59.3541V51.6129H56.7734V49.0322Z" fill="#444444"/>
<path d="M56.7734 54.1938H59.3541V72.2584H56.7734V54.1938Z" fill="#444444"/>
</svg>

<svg width="80" height="80" fill="none" xmlns="http://www.w3.org/2000/svg"><path d="M80 16.347v-.863C80 6.946 73.054 0 64.516 0S49.032 6.946 49.032 15.484v.863c0 3.069.9 6.039 2.602 8.588l6.308 9.464c-3.949 1.114-6.33 3.182-6.33 5.601v16.662c-1.299-.853-3.047-1.528-5.16-1.961v-7.402a6.411 6.411 0 00-1.89-4.562l-8.433-8.433v-7.39a14.33 14.33 0 0011.613-14.082V4.516A4.521 4.521 0 0043.226 0a4.521 4.521 0 00-4.516 4.516v6.542a6.427 6.427 0 01-4.542 6.159 8.98 8.98 0 001.961-5.604c0-4.98-4.053-9.032-9.032-9.032-4.98 0-9.033 4.051-9.033 9.032a9 9 0 002.872 6.586c-5.918.685-11.304 4.1-14.402 9.262L.617 37.324A4.314 4.314 0 000 39.55a4.327 4.327 0 004.323 4.321h.508c1.448 0 2.792-.72 3.595-1.924l7.99-11.987a3.518 3.518 0 011.648-1.329V42.4l-4.967 17.387c-.004.013-.005.026-.008.038-4.915.965-7.928 3.214-7.928 5.981v7.742c0 3.68 5.547 6.452 12.903 6.452 5.25 0 9.564-1.417 11.613-3.561C31.727 78.585 36.041 80 41.29 80c5.25 0 9.564-1.417 11.613-3.561C54.953 78.585 59.267 80 64.516 80c7.356 0 12.903-2.773 12.903-6.452V40c0-2.422-2.38-4.486-6.329-5.6l6.309-9.463A15.428 15.428 0 0080 16.347zM46.395 57.333c3.397.788 5.218 2.222 5.218 3.312 0 1.58-4.02 3.871-10.323 3.871-6.302 0-10.322-2.292-10.322-3.87 0-1.091 1.82-2.525 5.218-3.313.282 2.58 2.449 4.602 5.104 4.602 2.656 0 4.822-2.022 5.105-4.602zM28.387 61.83c-1.173-.772-2.713-1.398-4.556-1.832l5.458-17.283 6.84 6.696V54.7c-4.804.984-7.742 3.212-7.742 5.944v1.186zm-.036-30.071l-1.254 1.254-1.254-1.254.741-11.12h.395c.04 0 .078.005.118.005.042 0 .082-.005.124-.006h.009c.127-.002.251-.012.378-.02l.743 11.141zm-7.706-20.147a6.459 6.459 0 016.452-6.452 6.459 6.459 0 016.451 6.452 6.459 6.459 0 01-6.451 6.451 6.459 6.459 0 01-6.452-6.451zm-5.161 49.553c0-.227.03-.451.094-.67l5.018-17.562.05-17.128h-1.291a6.101 6.101 0 00-5.085 2.722L6.279 40.515a1.741 1.741 0 01-1.45.775h-.506a1.743 1.743 0 01-1.495-2.636l5.92-9.864c3.013-5.025 8.525-8.145 14.384-8.145l.865-.001-.807 12.112 3.907 3.907 3.907-3.907-.829-12.413 2.981-.298a9.004 9.004 0 008.134-8.987V4.516c0-1.067.869-1.935 1.936-1.935s1.935.868 1.935 1.935v8.316a11.753 11.753 0 01-10.464 11.693l-1.149.127v10.72l9.189 9.19a3.845 3.845 0 011.134 2.737v9.475a2.583 2.583 0 01-2.58 2.58 2.583 2.583 0 01-2.581-2.58v-7.362c0-.69-.283-1.362-.777-1.846L30.203 40h-2.762l-7.205 22.817a2.421 2.421 0 01-2.319 1.7 2.436 2.436 0 01-2.433-2.434v-.916zm-2.54 1.33c.216 2.57 2.35 4.6 4.973 4.6a4.993 4.993 0 004.78-3.504l.352-1.117c3.465.787 5.338 2.242 5.338 3.331 0 1.58-4.02 3.871-10.323 3.871-6.301 0-10.322-2.291-10.322-3.87 0-1.09 1.815-2.52 5.202-3.31zm5.12 14.923c-6.301 0-10.322-2.291-10.322-3.87V69.76c2.315 1.537 6.001 2.498 10.322 2.498 4.322 0 8.008-.961 10.323-2.498v3.788c0 1.58-4.02 3.871-10.323 3.871zm23.226 0c-6.302 0-10.322-2.291-10.322-3.87v-8.95c2.315 1.536 6.001 2.498 10.322 2.498 4.322 0 8.008-.962 10.323-2.498v8.95c0 1.579-4.02 3.87-10.323 3.87zm23.226 0c-6.302 0-10.323-2.291-10.323-3.87V43.952c2.315 1.537 6.002 2.499 10.323 2.499 4.321 0 8.008-.962 10.323-2.498v29.594c0 1.58-4.02 3.871-10.323 3.871zM74.84 40c0 1.58-4.02 3.871-10.323 3.871-6.302 0-10.323-2.292-10.323-3.871 0-1.062 1.856-2.52 5.274-3.313l1.97 2.954a3.691 3.691 0 003.08 1.65c1.24 0 2.391-.617 3.08-1.648l1.97-2.955c3.418.792 5.272 2.247 5.272 3.312zm-9.39-1.79c-.415.625-1.449.625-1.864 0L53.78 23.504a12.854 12.854 0 01-2.168-7.157v-.863c0-7.115 5.788-12.903 12.903-12.903S77.42 8.369 77.42 15.484v.863c0 2.556-.75 5.031-2.167 7.157L65.449 38.21z" fill="#444"/><path d="M64.518 5.161c-5.692 0-10.323 4.631-10.323 10.323 0 5.691 4.631 10.322 10.323 10.322s10.323-4.63 10.323-10.322c0-5.692-4.631-10.323-10.323-10.323zm0 18.065c-4.27 0-7.742-3.473-7.742-7.742 0-4.27 3.472-7.742 7.742-7.742s7.742 3.472 7.742 7.742-3.472 7.742-7.742 7.742zm-7.745 25.806h2.581v2.58h-2.58v-2.58zm0 5.162h2.581v18.064h-2.58V54.194z" fill="#444"/></svg>
